X:1
T:Title
%%score { ( 1 3 ) | ( 2 4 ) }
L:1/8
Q:1/4=81
M:6/8
K:Ab
V:1 treble nm="Grand Piano"
V:3 treble 
V:2 bass 
V:4 bass 
V:1
 [Ec]>[Fd][Ec] [Ec][EB][EA] | [FA]>[=EG][FA] B F2 | G>FG AGA | [=Dc][DB]>[DA] [EB]3 | %4
w: Geo.~C.~Stebbins * * * * *||||
 [Ec]>[Fd][Ec] [Ec][EB][EA] | [FA]>[EG][FA] B F2 | A>GF E[EA][Ec] |[M:5/8] B>AG [CA]2 | %8
w: ||||
[M:1/8] [_GA] |[M:3/4] [Fd]4 z2 | [Ec]3 [CA]2 c | e4 z2 |[M:5/8] [GB]-[GB]- [GB]3 |[M:1/8] [B,E] | %14
w: ||||||
[M:3/4] c4 z2 | [Fd]6 | e4 z2 | A6 |] %18
w: ||||
V:2
 [A,,A,]>[A,,A,][A,,A,] [A,,A,][B,,G,][C,A,] | [D,A,]>[D,B,][D,A,] [D,F,D] [D,B,D]2 | %2
 [E,B,D]>[E,B,D][E,B,D] [F,A,C][F,A,C][F,A,C] | [B,,A,][B,,F,]>[B,,B,] [E,G,]3 | %4
 [A,,A,]>[A,,A,][A,,A,] [A,,A,][B,,G,][C,A,] | [D,A,]>[D,B,][D,A,] [D,F,D] [D,B,D]2 | %6
 [=D,F,_C]>[D,G,C][D,A,C] [E,A,=C][C,A,][A,,A,] |[M:5/8] [E,G,D]>[E,A,C][E,B,D] [A,,A,]2 | %8
[M:1/8] [C,A,] |[M:3/4] [D,A,]2 D,D, [D,A,][D,A,] | [A,,A,]2 [A,,A,] [A,,A,]2[K:treble] [A,E] | %11
 A4[K:bass] z2 |[M:5/8] [E,E]2 E, E,2 |[M:1/8] G, |[M:3/4] A,2 A,[K:treble][A,E] [A,D_G][A,CG] | %15
 [D,D]2 D, D,2 [=D,A,] | [E,C]2 E,[E,B,] [E,B,][E,G,] | z2 F, E,3 |] %18
V:3
 x6 | x6 | x6 | x6 | x6 | x6 | x6 |[M:5/8] x5 |[M:1/8] x |[M:3/4] z2 A,A, [Ec][DB] | x6 | %11
 z z/ C/ Cc [Bd][Ac] |[M:5/8] z2 E E2 |[M:1/8] x |[M:3/4] E2- [CE]_G BA | z2 A, A,2 [FB] | %16
 A2- [CA]G [Gd][EB] | [A,C]2 D C3 |] %18
V:4
 x6 | x6 | x6 | x6 | x6 | x6 | x6 |[M:5/8] x5 |[M:1/8] x |[M:3/4] x6 | x5[K:treble] x | %11
 [A,C]>A, A,[A,C][K:bass] [G,E][A,E] |[M:5/8] x5 |[M:1/8] x |[M:3/4] x3[K:treble] x3 | x6 | x6 | %17
 A,,6 |] %18

